web-components-icons/ea00-chart/SVG/column-stacked.svg

<?xml version="1.0" encoding="utf-8"?>
<!-- Generator: Adobe Illustrator 24.2.0, SVG Export Plug-In . SVG Version: 6.00 Build 0)  -->
<svg version="1.1" id="Layer_1" xmlns="http://www.w3.org/2000/svg" xmlns:xlink="http://www.w3.org/1999/xlink" x="0px" y="0px"
	 width="512px" height="512px" viewBox="0 0 512 512" xml:space="preserve">
<path d="M320,192v256h-32V96H128v352H64V32H32v448h448V192H320z M160,448V256h96v192H160z M352,448v-96h96v96H352z"/>
</svg>

<svg xmlns="http://www.w3.org/2000/svg" viewBox="0 0 512 512"><title>column-stacked</title><g id="column_stacked" data-name="column stacked"><path d="M320,192V448H288V96H128V448H64V32H32V480H480V192ZM160,448V256h96V448Zm192,0V352h96v96Z"/></g></svg>
